web/public/logos/akasa.svg

<svg width="168" height="35" viewBox="0 0 168 35" fill="none" xmlns="http://www.w3.org/2000/svg">
<g clip-path="url(#clip0_1_50)">
<path d="M17.5 35C27.165 35 35 27.165 35 17.5C35 7.83502 27.165 0 17.5 0C7.83502 0 0 7.83502 0 17.5C0 27.165 7.83502 35 17.5 35Z" fill="white"/>
<path d="M11.5 13C12.3284 13 13 12.3284 13 11.5C13 10.6716 12.3284 10 11.5 10C10.6716 10 10 10.6716 10 11.5C10 12.3284 10.6716 13 11.5 13Z" fill="white"/>
<path d="M17.5 13C18.3284 13 19 12.3284 19 11.5C19 10.6716 18.3284 10 17.5 10C16.6716 10 16 10.6716 16 11.5C16 12.3284 16.6716 13 17.5 13Z" fill="white"/>
<path d="M23.5 13C24.3284 13 25 12.3284 25 11.5C25 10.6716 24.3284 10 23.5 10C22.6716 10 22 10.6716 22 11.5C22 12.3284 22.6716 13 23.5 13Z" fill="white"/>
<path d="M23.856 16.04C23.5308 15.9756 23.1934 16.0269 22.902 16.185C22.626 16.333 22.408 16.567 22.132 16.715C21.6185 16.9685 21.0504 17.0915 20.478 17.073C19.9203 17.0897 19.3685 16.9553 18.881 16.684C18.6173 16.4772 18.3411 16.2869 18.054 16.114C17.7591 15.988 17.4302 15.9657 17.121 16.051C16.833 16.169 16.568 16.341 16.338 16.556C16.0642 16.7488 15.758 16.8911 15.434 16.976C14.9599 17.089 14.4691 17.1141 13.986 17.05C13.6625 17.0139 13.3463 16.9292 13.048 16.799C12.7709 16.6497 12.5096 16.4728 12.268 16.271C12.0438 16.1101 11.7772 16.0188 11.5014 16.0083C11.2256 15.9978 10.9528 16.0686 10.717 16.212C10.232 16.506 9.95501 17.062 10.006 17.64C10.056 18.218 10.426 18.714 10.952 18.913C11.223 19.013 11.517 19.027 11.796 18.953C12.0962 18.8413 12.3724 18.6737 12.61 18.459C13.103 18.1148 13.6908 17.9324 14.292 17.937C14.772 17.912 15.252 17.974 15.709 18.123C16.01 18.24 16.289 18.409 16.537 18.623C16.778 18.839 17.081 18.97 17.4 18.996C17.715 19.019 18.03 18.933 18.294 18.753C18.5464 18.5483 18.8157 18.3653 19.099 18.206C19.5784 18.0046 20.0966 17.9127 20.616 17.937C21.1838 17.9212 21.7446 18.0658 22.234 18.354C22.481 18.549 22.74 18.726 23.009 18.884C23.294 19.008 23.609 19.033 23.909 18.956C24.419 18.818 24.818 18.406 24.952 17.878C25.0182 17.6196 25.0166 17.3485 24.9472 17.091C24.8778 16.8334 24.7431 16.5981 24.556 16.408C24.3624 16.2213 24.1196 16.0936 23.856 16.04Z" fill="white"/>
<path d="M10 22H25V24H10V22Z" fill="white"/>
<path d="M51.917 6L46.045 19.132H43.075L41 23.727H43.995L42.079 28H48.525L50.277 23.727H59.694L61.446 28H68L58.145 6.008L51.917 6ZM52.109 19.132L54.972 12.105L57.836 19.132H52.109Z" fill="white"/>
<path d="M92.53 6H85.678L77.162 15.147V6H71V28H77.162V22.5L79.487 20.016L85.773 28H93L83.54 15.744L92.53 6Z" fill="white"/>
<path d="M103.87 6L94 28H100.452L102.208 23.725H111.663L113.422 28H120L110.108 6H103.87ZM104.063 19.137L106.948 12.097L109.822 19.127L104.062 19.137H104.063Z" fill="white"/>
<path d="M136.923 16.254C135.565 15.7717 134.175 15.3867 132.763 15.102C131.656 14.8996 130.57 14.5932 129.521 14.187C128.851 13.893 128.516 13.451 128.516 12.861C128.518 12.5678 128.597 12.2804 128.746 12.0278C128.895 11.7753 129.108 11.5666 129.364 11.423C129.93 11.061 130.83 10.88 132.066 10.88C134.032 10.88 136.063 11.449 138.158 12.586L140.073 7.943C138.92 7.27311 137.672 6.78282 136.372 6.489C134.972 6.163 133.54 5.999 132.104 6C129.987 6 128.203 6.316 126.749 6.948C125.429 7.4706 124.289 8.36429 123.467 9.521C122.736 10.5966 122.352 11.8705 122.367 13.171C122.367 14.708 122.765 15.929 123.561 16.833C124.331 17.723 125.315 18.4026 126.42 18.808C127.773 19.29 129.157 19.677 130.564 19.966C131.684 20.186 132.784 20.509 133.846 20.93C134.524 21.235 134.867 21.705 134.867 22.335C134.867 23.535 133.673 24.136 131.285 24.136C129.985 24.129 128.695 23.926 127.455 23.536C126.244 23.1769 125.091 22.6451 124.032 21.957L122 26.568C123.248 27.3924 124.63 27.9912 126.085 28.337C127.776 28.7801 129.518 29.0029 131.266 29C133.361 29 135.14 28.678 136.604 28.035C138.069 27.392 139.167 26.535 139.9 25.462C140.629 24.4042 141.013 23.1467 141 21.862C141 20.324 140.597 19.108 139.792 18.213C139.01 17.3357 138.025 16.6631 136.923 16.254Z" fill="white"/>
<path d="M168 23.725L165.924 19.129H162.941L157.046 6H150.839L141 28H147.432L149.182 23.725H158.607L160.357 28H166.918L165.001 23.725H168ZM151.017 19.129L153.885 12.099L156.75 19.129H151.017Z" fill="white"/>
<path d="M162.78 8.31H162V8H164V8.31H163.224V10H162.786L162.78 8.31ZM167.501 9.996V8.67L166.617 9.767H166.389L165.487 8.691V10H165V8H165.419L166.51 9.327L167.581 8H168V10L167.501 9.996Z" fill="white"/>
</g>
<defs>
<clipPath id="clip0_1_50">
<rect width="168" height="35" fill="white"/>
</clipPath>
</defs>
</svg>

<svg width="168" height="35" version="1.1" xmlns="http://www.w3.org/2000/svg"><g id="Akasa-Logo-/-FullColor" stroke="none" stroke-width="1" fill="none" fill-rule="evenodd"><g id="Akasa-Logo_FullColor"><circle id="Oval" fill="#1D334D" fill-rule="nonzero" cx="17.5" cy="17.5" r="17.5"/><circle id="Oval" fill="#FFF" fill-rule="nonzero" cx="11.5" cy="11.5" r="1.5"/><circle id="Oval" fill="#FFF" fill-rule="nonzero" cx="17.5" cy="11.5" r="1.5"/><circle id="Oval" fill="#FFF" fill-rule="nonzero" cx="23.5" cy="11.5" r="1.5"/><path d="M23.856 16.04a1.421 1.421 0 00-.954.145c-.276.148-.494.382-.77.53a3.483 3.483 0 01-1.654.358 3.093 3.093 0 01-1.597-.389 8.178 8.178 0 00-.827-.57 1.416 1.416 0 00-.933-.063c-.288.118-.553.29-.783.505a2.806 2.806 0 01-.904.42 3.985 3.985 0 01-1.448.074 3.245 3.245 0 01-.938-.251 4.676 4.676 0 01-.78-.528 1.407 1.407 0 00-1.551-.059c-.485.294-.762.85-.711 1.428.05.578.42 1.074.946 1.273.271.1.565.114.844.04a2.53 2.53 0 00.814-.494 2.9 2.9 0 011.682-.522c.48-.025.96.037 1.417.186.301.117.58.286.828.5.241.216.544.347.863.373.315.023.63-.063.894-.243a5.76 5.76 0 01.805-.547 3.494 3.494 0 011.517-.269 3.023 3.023 0 011.618.417c.247.195.506.372.775.53.285.124.6.149.9.072.51-.138.909-.55 1.043-1.078a1.548 1.548 0 00-.396-1.47 1.414 1.414 0 00-.7-.368z" id="Path" fill="#86D9E9" fill-rule="nonzero"/><path id="Rectangle" fill="#E7314E" fill-rule="nonzero" d="M10 22h15v2H10z"/><path id="Path" d="M52 20h6l-3-7zm99 0h6l-2.999-7zm-47 0h6l-3-7z"/><path d="M51.917 6l-5.872 13.132h-2.97L41 23.727h2.995L42.079 28h6.446l1.752-4.273h9.417L61.446 28H68L58.145 6.008 51.917 6zm.192 13.132l2.863-7.027 2.864 7.027h-5.727z" id="Shape" fill="#1D334D" fill-rule="nonzero"/><path id="Path" fill="#1D334D" fill-rule="nonzero" d="M92.53 6h-6.852l-8.516 9.147V6H71v22h6.162v-5.5l2.325-2.484L85.773 28H93l-9.46-12.256z"/><path d="M103.87 6L94 28h6.452l1.756-4.275h9.455L113.422 28H120l-9.892-22h-6.238zm.193 13.137l2.885-7.04 2.874 7.03-5.76.01z" id="Shape" fill="#1D334D" fill-rule="nonzero"/><path d="M136.923 16.254a30.322 30.322 0 00-4.16-1.152 17.899 17.899 0 01-3.242-.915c-.67-.294-1.005-.736-1.005-1.326a1.662 1.662 0 01.848-1.438c.566-.362 1.466-.543 2.702-.543 1.966 0 3.997.569 6.092 1.706l1.915-4.643a13.12 13.12 0 00-3.701-1.454c-1.4-.326-2.832-.49-4.268-.489-2.117 0-3.901.316-5.355.948a7.346 7.346 0 00-3.282 2.573 6.362 6.362 0 00-1.1 3.65c0 1.537.398 2.758 1.194 3.662a6.945 6.945 0 002.859 1.975 30.83 30.83 0 004.144 1.158c1.12.22 2.22.543 3.282.964.678.305 1.021.775 1.021 1.405 0 1.2-1.194 1.801-3.582 1.801-1.3-.007-2.59-.21-3.83-.6a13.14 13.14 0 01-3.423-1.579L122 26.568a12.764 12.764 0 004.085 1.769 20.31 20.31 0 005.181.663c2.095 0 3.874-.322 5.338-.965 1.465-.643 2.563-1.5 3.296-2.573a6.228 6.228 0 001.1-3.6c0-1.538-.403-2.754-1.208-3.649a7.203 7.203 0 00-2.869-1.959z" id="Path" fill="#1D334D" fill-rule="nonzero"/><path d="M168 23.725l-2.076-4.596h-2.983L157.046 6h-6.207L141 28h6.432l1.75-4.275h9.425l1.75 4.275h6.561l-1.917-4.275H168zm-16.983-4.596l2.868-7.03 2.865 7.03h-5.733z" id="Shape" fill="#1D334D" fill-rule="nonzero"/><path id="Path" fill="#1D334D" fill-rule="nonzero" d="M162.78 8.31H162V8h2v.31h-.776V10h-.438zm4.721 1.686V8.67l-.884 1.097h-.228l-.902-1.076V10H165V8h.419l1.091 1.327L167.581 8H168v2z"/></g></g></svg>
